Origami/64x64/apps/stremio.svg

<svg width="64" height="64" version="1" xmlns="http://www.w3.org/2000/svg">
 <path d="m31.999158 4.0000552c-1.519115 0-3.039245 0.5662203-4.17482 1.7017681l-23.122595 23.125172c-2.271152 2.271094-2.26793 6.071793 0.0033 8.34289l23.122595 23.125171c2.271152 2.271097 6.075238 2.274319 8.346391 0.0033l23.122608-23.125155c2.271151-2.271097 2.271152-6.07505 0-8.346145l-23.122655-23.125233c-1.135576-1.1355478-2.655707-1.7017681-4.174824-1.7017681z" style="opacity:.2"/>
 <path d="m31.999158 3.0000276c-1.519115 0-3.039245 0.5662203-4.17482 1.7017681l-23.122595 23.125171c-2.271152 2.271094-2.26793 6.071793 0.0033 8.34289l23.122595 23.125171c2.271152 2.271097 6.075238 2.274319 8.346391 0.0033l23.122608-23.125155c2.271151-2.271097 2.271152-6.07505 0-8.346145l-23.122655-23.125232c-1.135576-1.1355478-2.655707-1.7017681-4.174824-1.7017681z" style="fill:#67428d"/>
 <g transform="matrix(1.4534752,0,0,1.4296946,-2.289976,-1.9117127)" style="opacity:.2">
  <path d="m24.956 23.844v0.08935c3.5841 0.46662 5.5137 2.1941 5.5137 5.1825 0 2.0154-0.68504 3.6039-2.0551 4.7655-1.3701 1.1517-3.3508 1.7275-5.942 1.7275-2.4026 0-4.3237-0.39216-5.7633-1.1765v-2.5317c1.8268 0.9531 3.728 1.4297 5.7037 1.4297 3.5146 0 5.2719-1.4346 5.2719-4.3039 0-2.5615-1.8913-3.8422-5.6739-3.8422h-1.1735v-2.1659h1.1735c1.5885 0 2.4068-0.46011 3.2805-1.2146 0.87368-0.75454 1.3105-1.7523 1.3105-2.9933 0-1.0127-0.33756-1.8119-1.0127-2.3976-0.67512-0.59569-1.5786-0.89353-2.7104-0.89353-1.7672 0-3.0621 0.60065-4.7101 1.802l-1.371-1.862c1.8566-1.4892 3.6081-2.2338 6.0802-2.2338 2.0452 0 3.3434 0.49144 4.4852 1.4743 1.1517 0.98289 1.7275 2.2934 1.7275 3.9316 0 1.3701-0.1319 2.5168-0.94601 3.4401-0.81411 0.92332-1.6804 1.514-3.1895 1.7722z"/>
 </g>
 <g transform="matrix(1.4534752,0,0,1.4296946,-2.289976,-2.9116608)" style="fill:#8b93ff">
  <path d="m24.956 23.844v0.08935c3.5841 0.46662 5.5137 2.1941 5.5137 5.1825 0 2.0154-0.68504 3.6039-2.0551 4.7655-1.3701 1.1517-3.3508 1.7275-5.942 1.7275-2.4026 0-4.3237-0.39216-5.7633-1.1765v-2.5317c1.8268 0.9531 3.728 1.4297 5.7037 1.4297 3.5146 0 5.2719-1.4346 5.2719-4.3039 0-2.5615-1.8913-3.8422-5.6739-3.8422h-1.1735v-2.1659h1.1735c1.5885 0 2.4068-0.46011 3.2805-1.2146 0.87368-0.75454 1.3105-1.7523 1.3105-2.9933 0-1.0127-0.33756-1.8119-1.0127-2.3976-0.67512-0.59569-1.5786-0.89353-2.7104-0.89353-1.7672 0-3.0621 0.60065-4.7101 1.802l-1.371-1.862c1.8566-1.4892 3.6081-2.2338 6.0802-2.2338 2.0452 0 3.3434 0.49144 4.4852 1.4743 1.1517 0.98289 1.7275 2.2934 1.7275 3.9316 0 1.3701-0.1319 2.5168-0.94601 3.4401-0.81411 0.92332-1.6804 1.514-3.1895 1.7722z"/>
 </g>
 <path d="m32 3c-1.519115 0-3.040206 0.5656241-4.175781 1.7011719l-23.123047 23.125c-1.256063 1.256031-1.8118994 2.980052-1.6777344 4.654297 0.1138414-1.340762 0.6714263-2.648015 1.6777344-3.654297l23.123047-23.125c1.135575-1.1355478 2.656666-1.7011719 4.175781-1.7011719 1.519117 0 3.038252 0.5656241 4.173828 1.7011719l23.123047 23.125c1.010709 1.010684 1.568551 2.326192 1.679687 3.673828 0.138598-1.680621-0.419244-3.413417-1.679687-4.673828l-23.123047-23.125c-1.135576-1.1355478-2.654711-1.7011719-4.173828-1.7011719z" style="fill:#ffffff;opacity:.1"/>
</svg>

<svg xmlns="http://www.w3.org/2000/svg" width="64" height="64" version="1">
 <path style="opacity:0.2" d="m 31.999158,4.0000552 c -1.519115,0 -3.039245,0.5662203 -4.17482,1.7017681 L 4.7017433,28.826995 c -2.271152,2.271094 -2.26793,6.071793 0.0033,8.34289 L 27.827638,60.295056 c 2.271152,2.271097 6.075238,2.274319 8.346391,0.0033 L 59.296637,37.173201 c 2.271151,-2.271097 2.271152,-6.07505 0,-8.346145 L 36.173982,5.7018233 C 35.038406,4.5662755 33.518275,4.0000552 31.999158,4.0000552 Z"/>
 <path style="fill:#67428d" d="m 31.999158,3.0000276 c -1.519115,0 -3.039245,0.5662203 -4.17482,1.7017681 L 4.7017433,27.826967 c -2.271152,2.271094 -2.26793,6.071793 0.0033,8.34289 L 27.827638,59.295028 c 2.271152,2.271097 6.075238,2.274319 8.346391,0.0033 L 59.296637,36.173173 c 2.271151,-2.271097 2.271152,-6.07505 0,-8.346145 L 36.173982,4.7017957 C 35.038406,3.5662479 33.518275,3.0000276 31.999158,3.0000276 Z"/>
 <g style="opacity:0.2" transform="matrix(1.4534752,0,0,1.4296946,-2.289976,-1.9117127)">
  <path d="m 24.956,23.844 0,0.08935 c 3.5841,0.46662 5.5137,2.1941 5.5137,5.1825 0,2.0154 -0.68504,3.6039 -2.0551,4.7655 -1.3701,1.1517 -3.3508,1.7275 -5.942,1.7275 -2.4026,0 -4.3237,-0.39216 -5.7633,-1.1765 l 0,-2.5317 c 1.8268,0.9531 3.728,1.4297 5.7037,1.4297 3.5146,0 5.2719,-1.4346 5.2719,-4.3039 0,-2.5615 -1.8913,-3.8422 -5.6739,-3.8422 l -1.1735,0 0,-2.1659 1.1735,0 c 1.5885,0 2.4068,-0.46011 3.2805,-1.2146 0.87368,-0.75454 1.3105,-1.7523 1.3105,-2.9933 0,-1.0127 -0.33756,-1.8119 -1.0127,-2.3976 -0.67512,-0.59569 -1.5786,-0.89353 -2.7104,-0.89353 -1.7672,0 -3.0621,0.60065 -4.7101,1.802 l -1.371,-1.862 c 1.8566,-1.4892 3.6081,-2.2338 6.0802,-2.2338 2.0452,0 3.3434,0.49144 4.4852,1.4743 1.1517,0.98289 1.7275,2.2934 1.7275,3.9316 0,1.3701 -0.1319,2.5168 -0.94601,3.4401 -0.81411,0.92332 -1.6804,1.514 -3.1895,1.7722 z"/>
 </g>
 <g style="fill:#8b93ff" transform="matrix(1.4534752,0,0,1.4296946,-2.289976,-2.9116608)">
  <path d="m 24.956,23.844 0,0.08935 c 3.5841,0.46662 5.5137,2.1941 5.5137,5.1825 0,2.0154 -0.68504,3.6039 -2.0551,4.7655 -1.3701,1.1517 -3.3508,1.7275 -5.942,1.7275 -2.4026,0 -4.3237,-0.39216 -5.7633,-1.1765 l 0,-2.5317 c 1.8268,0.9531 3.728,1.4297 5.7037,1.4297 3.5146,0 5.2719,-1.4346 5.2719,-4.3039 0,-2.5615 -1.8913,-3.8422 -5.6739,-3.8422 l -1.1735,0 0,-2.1659 1.1735,0 c 1.5885,0 2.4068,-0.46011 3.2805,-1.2146 0.87368,-0.75454 1.3105,-1.7523 1.3105,-2.9933 0,-1.0127 -0.33756,-1.8119 -1.0127,-2.3976 -0.67512,-0.59569 -1.5786,-0.89353 -2.7104,-0.89353 -1.7672,0 -3.0621,0.60065 -4.7101,1.802 l -1.371,-1.862 c 1.8566,-1.4892 3.6081,-2.2338 6.0802,-2.2338 2.0452,0 3.3434,0.49144 4.4852,1.4743 1.1517,0.98289 1.7275,2.2934 1.7275,3.9316 0,1.3701 -0.1319,2.5168 -0.94601,3.4401 -0.81411,0.92332 -1.6804,1.514 -3.1895,1.7722 z"/>
 </g>
 <path style="fill:#ffffff;opacity:0.1" d="M 32 3 C 30.480885 3 28.959794 3.5656241 27.824219 4.7011719 L 4.7011719 27.826172 C 3.4451089 29.082203 2.8892725 30.806224 3.0234375 32.480469 C 3.1372789 31.139707 3.6948638 29.832454 4.7011719 28.826172 L 27.824219 5.7011719 C 28.959794 4.5656241 30.480885 4 32 4 C 33.519117 4 35.038252 4.5656241 36.173828 5.7011719 L 59.296875 28.826172 C 60.307584 29.836856 60.865426 31.152364 60.976562 32.5 C 61.11516 30.819379 60.557318 29.086583 59.296875 27.826172 L 36.173828 4.7011719 C 35.038252 3.5656241 33.519117 3 32 3 z"/>
</svg>
